X:51
T:King!God bless him,The. CJF.051
R:Air
C:Braham
S:C.J.Fox MS, 1829/33, Beverley,E.Yorks.
B:Kidson Coll.Mitchell Lib.M1805
O:England
A:East Yorkshire
Z:vmp.P J Headford 2000 & 2008
M:6/8
L:1/8
Q:3/8=60
K:D
” f”A|d>cd fed|gBB B2B|A>BA dAf|e3a2A/A/|\
f>”p”ed dcB|A^Gee2e|{A/}(aec) (fe^G)|\
(Ace)a2″ f”A|!
d>cd {A/}fed|gBBB2B|A>BA dAf|eaaa2A/A/|f>ed dcB|\
A^Gee2e|{A/}(a/^g/f/e/d/c/) (fe)^G|A(c/A/)(e/c/)a2||!
B”p”|Bc^d e>fg|A>Bcd2A/F/|EGB eg>e|\
” ff” (dc) aa2″mf”A/A/|BAA eAA|f>ed {c}B2HB/B/|!
c.dfa2c|eddd2a|fd ff2d|cB BB2HB/B/|A.dfa2c|eddd2|]

